svg/aws-ec2-d3.svg

<?xml version="1.0" encoding="UTF-8"?>
<svg xmlns="http://www.w3.org/2000/svg" xmlns:xlink="http://www.w3.org/1999/xlink" width="32" height="32" viewBox="0 0 32 32">
<path fill-rule="evenodd" fill="rgb(83.137255%, 35.686275%, 2.745098%)" fill-opacity="1" d="M 6 26 L 26 26 L 26 6 L 6 6 Z M 30.667969 8.667969 L 30.667969 7.332031 L 27.332031 7.332031 L 27.332031 5.332031 C 27.332031 4.964844 27.035156 4.667969 26.667969 4.667969 L 24.667969 4.667969 L 24.667969 1.332031 L 23.332031 1.332031 L 23.332031 4.667969 L 20.667969 4.667969 L 20.667969 1.332031 L 19.332031 1.332031 L 19.332031 4.667969 L 16.667969 4.667969 L 16.667969 1.332031 L 15.332031 1.332031 L 15.332031 4.667969 L 12.667969 4.667969 L 12.667969 1.332031 L 11.332031 1.332031 L 11.332031 4.667969 L 8.667969 4.667969 L 8.667969 1.332031 L 7.332031 1.332031 L 7.332031 4.667969 L 5.332031 4.667969 C 4.964844 4.667969 4.667969 4.964844 4.667969 5.332031 L 4.667969 7.332031 L 1.332031 7.332031 L 1.332031 8.667969 L 4.667969 8.667969 L 4.667969 11.332031 L 1.332031 11.332031 L 1.332031 12.667969 L 4.667969 12.667969 L 4.667969 15.332031 L 1.332031 15.332031 L 1.332031 16.667969 L 4.667969 16.667969 L 4.667969 19.332031 L 1.332031 19.332031 L 1.332031 20.667969 L 4.667969 20.667969 L 4.667969 23.332031 L 1.332031 23.332031 L 1.332031 24.667969 L 4.667969 24.667969 L 4.667969 26.667969 C 4.667969 27.035156 4.964844 27.332031 5.332031 27.332031 L 7.332031 27.332031 L 7.332031 30.667969 L 8.667969 30.667969 L 8.667969 27.332031 L 11.332031 27.332031 L 11.332031 30.667969 L 12.667969 30.667969 L 12.667969 27.332031 L 15.332031 27.332031 L 15.332031 30.667969 L 16.667969 30.667969 L 16.667969 27.332031 L 19.332031 27.332031 L 19.332031 30.667969 L 20.667969 30.667969 L 20.667969 27.332031 L 23.332031 27.332031 L 23.332031 30.667969 L 24.667969 30.667969 L 24.667969 27.332031 L 26.667969 27.332031 C 27.035156 27.332031 27.332031 27.035156 27.332031 26.667969 L 27.332031 24.667969 L 30.667969 24.667969 L 30.667969 23.332031 L 27.332031 23.332031 L 27.332031 20.667969 L 30.667969 20.667969 L 30.667969 19.332031 L 27.332031 19.332031 L 27.332031 16.667969 L 30.667969 16.667969 L 30.667969 15.332031 L 27.332031 15.332031 L 27.332031 12.667969 L 30.667969 12.667969 L 30.667969 11.332031 L 27.332031 11.332031 L 27.332031 8.667969 Z M 18.667969 19.472656 C 18.0625 19.472656 17.46875 19.34375 16.914062 19.101562 L 16.914062 18.222656 C 17.59375 18.453125 18.164062 18.566406 18.628906 18.566406 C 19.070312 18.566406 19.40625 18.46875 19.644531 18.273438 C 19.882812 18.078125 20.003906 17.800781 20.003906 17.4375 C 20.003906 16.753906 19.570312 16.410156 18.707031 16.410156 C 18.429688 16.410156 18.128906 16.429688 17.808594 16.46875 L 17.808594 15.75 L 19.648438 13.753906 L 17.007812 13.753906 L 17.007812 12.867188 L 20.863281 12.867188 L 20.863281 13.714844 L 18.921875 15.617188 C 19.007812 15.613281 19.09375 15.609375 19.179688 15.609375 C 19.542969 15.609375 19.871094 15.683594 20.164062 15.839844 C 20.460938 15.992188 20.695312 16.207031 20.871094 16.488281 C 21.042969 16.765625 21.132812 17.085938 21.132812 17.449219 C 21.132812 17.839844 21.03125 18.1875 20.832031 18.492188 C 20.632812 18.796875 20.347656 19.039062 19.976562 19.210938 C 19.601562 19.386719 19.164062 19.472656 18.667969 19.472656 M 12.003906 18.4375 L 12.003906 13.761719 L 12.945312 13.761719 C 14.234375 13.761719 14.878906 14.503906 14.878906 15.992188 L 14.878906 16.199219 C 14.878906 17.691406 14.234375 18.4375 12.945312 18.4375 Z M 15.265625 18.492188 C 15.78125 17.933594 16.035156 17.128906 16.035156 16.085938 C 16.035156 15.046875 15.78125 14.25 15.277344 13.695312 C 14.769531 13.144531 14.035156 12.867188 13.078125 12.867188 L 10.867188 12.867188 L 10.867188 19.332031 L 13.070312 19.332031 C 14.019531 19.332031 14.753906 19.054688 15.265625 18.492188 M 15.265625 18.492188 "/>
</svg>

<svg role="img" viewBox="0 0 32 32" xmlns="http://www.w3.org/2000/svg"><path d="M6 26h20V6H6ZM30.668 8.668V7.332h-3.336v-2a.664.664 0 0 0-.664-.664h-2V1.332h-1.336v3.336h-2.664V1.332h-1.336v3.336h-2.664V1.332h-1.336v3.336h-2.664V1.332h-1.336v3.336H8.668V1.332H7.332v3.336h-2a.664.664 0 0 0-.664.664v2H1.332v1.336h3.336v2.664H1.332v1.336h3.336v2.664H1.332v1.336h3.336v2.664H1.332v1.336h3.336v2.664H1.332v1.336h3.336v2c0 .367.297.664.664.664h2v3.336h1.336v-3.336h2.664v3.336h1.336v-3.336h2.664v3.336h1.336v-3.336h2.664v3.336h1.336v-3.336h2.664v3.336h1.336v-3.336h2a.664.664 0 0 0 .664-.664v-2h3.336v-1.336h-3.336v-2.664h3.336v-1.336h-3.336v-2.664h3.336v-1.336h-3.336v-2.664h3.336v-1.336h-3.336V8.668Zm-12 10.805a4.4 4.4 0 0 1-1.754-.371v-.88q1.019.345 1.715.344.66 0 1.016-.293.358-.291.359-.835-.001-1.027-1.297-1.028-.417 0-.898.059v-.719l1.84-1.996h-2.641v-.887h3.855v.848l-1.941 1.902a6 6 0 0 1 .258-.008q.544-.001.984.23.444.228.707.65.26.416.262.96-.001.585-.301 1.043-.3.46-.855.719-.564.263-1.309.262m-6.664-1.035v-4.676h.941q1.935-.001 1.934 2.23v.207q0 2.238-1.934 2.238Zm3.262.054c.515-.558.77-1.363.77-2.406q-.002-1.56-.759-2.39-.762-.83-2.199-.829h-2.21v6.465h2.202c.95 0 1.684-.277 2.196-.84m0 0" fill="rgb(83.137256%, 35.686275%, 2.745098%)" fill-rule="evenodd"/></svg>
